X: 671
T: Da suanzao
%%abc-version 2.0
%%abcx-abcm2ps-target-version 5.9.1 (29 Sep 2008)
%%abc-creator hum2abc beta
%%abcx-conversion-date 2013/10/02 07:52:30
%%abc-edited-by Helmut Schaffrath
%%humdrum-veritas 2624995353
%%humdrum-veritas-data 2963951967
%%continueall 1
%%barnumbers 0
L: 1/8
M: 2/4
K: D
A B/ A/F2 [I:setbarnb 1]| 
d f e f | 
d d B A | 
F4 | 
d ef2 | 
f e/ d/A2 | 
d d B F | 
A4 |]  



